dist/images/icons/soc-3.svg

<svg width="16" height="16" viewBox="0 0 16 16" fill="none" xmlns="http://www.w3.org/2000/svg">
<path d="M8 16C12.4171 16 16 12.4171 16 8C16 3.58285 12.4171 0 8 0C3.58285 0 0 3.58285 0 8C0 12.4171 3.58285 16 8 16ZM7.42855 3.42858C7.42855 3.11428 7.6857 2.85713 8 2.85713C8.3143 2.85713 8.57144 3.11428 8.57144 3.42858V7.72572L11.2143 9.84001C11.46 10.0372 11.5 10.3971 11.3029 10.6429C11.2495 10.7098 11.1817 10.7639 11.1045 10.801C11.0273 10.8381 10.9428 10.8573 10.8571 10.8571C10.7314 10.8571 10.6057 10.8171 10.5 10.7314L7.64288 8.44573C7.50859 8.33714 7.4286 8.1743 7.4286 8V3.42858H7.42855Z" fill="#2B2A29"/>
</svg>

<svg width="16" height="16" fill="none" xmlns="http://www.w3.org/2000/svg"><path d="M8 16c4.417 0 8-3.583 8-8s-3.583-8-8-8-8 3.583-8 8 3.583 8 8 8zM7.429 3.429c0-.315.257-.572.571-.572.314 0 .571.257.571.572v4.297l2.643 2.114a.572.572 0 01-.714.891L7.643 8.446A.573.573 0 017.429 8V3.429z" fill="#2B2A29"/></svg>
